X:1
T:It Was Jesus
T:It Was Jesus
T:Fred S. Shepard
T:James Rowe, 1903, alt.
T:Public Domain Courtesy of the Cyber Hymnal™
T:Public Domain Courtesy of the Cyber Hymnal™
C:Fred S. Shepard
Z:Public Domain
Z:Courtesy of the Cyber Hymnal™
%%score ( 1 2 ) ( 3 4 )
L:1/8
Q:1/4=82
M:2/4
K:Db
V:1 treble 
V:2 treble 
V:3 bass 
V:4 bass 
V:1
 [DF] | [DF][DF] [DF][EG] | [FA][FA] [FA]>[FA] | [GB][GB] [GB][Gd] | [FA]3 [FA] | %5
w: 1.~My|path was al- ways|rough and drear, My|soul was al- ways|sad; But|
w: 2.~My|soul was stained with|ma- ny sins, I|lived in fear and|dread; But|
w: 3.~O|wan- dering one in|paths of sin, The|Sav- ior calls to|thee; He|
 [EG][EG] [CE][CG] | [DF][EG] [FA]>[Fd] | [Ec][Ec] [Ec][DB] | [CA]3 ||"^Refrain" [GB]/[Gc]/ | %10
w: now my path is|smooth and bright, My|soul for- ev- er|glad.||
w: now my soul is|free from stain, And|all my fears have|fled.|It was|
w: longs to give you|peace and rest, From|sin to set you|free.||
 d2 [Gc][GB] | [FA]2 [DF][DF] | [DF][CE] [CE][DF] | [EG]3 [EG]/[EG]/ | c2 [GB][GA] | %15
w: |||||
w: Je- sus, my|Sav- ior Who|wrought this change in|me; It was|Je- sus, my|
w: |||||
 [GB]2 [FA][EG] | [DF][EG] [FA][GB] | [FA]3 [FA] | [DF][DF] [DF][EG] | [FA][FA] [FA][FA] | %20
w: |||||
w: Sav- ior, Blest|Lamb of Cal- va-|ry; I|came to Him just|as I was, From|
w: |||||
 [GB]>[GB] [GB][Gd] | [FA]3 [Fd]/[Ge]/ | f2 [Ge][Fd] | [Ge]2 [Gd][GB] | [FA][Fd] [Gc][Ge] | %25
w: |||||
w: sin He set me|free; It was|Je- sus, my|Sav- ior, Who|wrought this change in|
w: |||||
 [Fd]3 |] %26
w: |
w: me.|
w: |
V:2
 x | x4 | x4 | x4 | x4 | x4 | x4 | x4 | x3 || x | (FF) x2 | x4 | x4 | x4 | (GG) x2 | x4 | x4 | x4 | %18
 x4 | x4 | x4 | x4 | (AA) x2 | x4 | x4 | x3 |] %26
V:3
 [D,A,] | [D,A,][D,A,] [D,A,][D,A,] | [D,D][D,D] [D,D]>[D,D] | [G,D][G,D] [G,D][B,,D] | %4
w: ~|~ ~ ~ ~|~ ~ ~ ~|~ ~ ~ ~|
 [D,A,]3 [D,D] | [A,C][A,C] A,[A,,A,] | [D,A,][D,A,] [D,D]>[D,A,] | [E,A,][E,A,] [E,A,][E,=G,] | %8
w: ~ ~|~ ~ ~ ~|~ ~ ~ ~|~ ~ ~ ~|
 [A,,A,]3 || [A,,A,]/[A,,A,]/ | A,A, [D,D][D,D] | [D,D]2 [D,A,][D,A,] | %12
w: ~|It was|Je- sus Christ, my|Sav- ior, ~|
 [A,,A,][A,,A,] [A,,A,][A,,A,] | [A,,C]3 [A,C]/[A,C]/ | EE [A,D][A,C] | [D,D]2 [D,D][D,D] | %16
w: ~ ~ ~ ~|~ It was|Je- sus Christ, my|Sav- ior, ~|
 [D,A,][D,A,] [D,D][D,D] | [D,D]3 [D,D] | [D,A,][D,A,] [D,A,][D,A,] | [D,D][D,D] [D,D][D,D] | %20
w: ~ ~ ~ ~|~ ~|~ ~ ~ ~|~ ~ ~ ~|
 [G,D]>[G,D] [G,D][B,,D] | [D,D]3 [D,D]/[D,D]/ | [D,D][D,D] [D,D][D,D] | [G,B,]2 [G,B,][G,D] | %24
w: ~ ~ ~ ~|~ It was|Je- sus Christ, my|Sav- ior, *|
 [A,D][A,D] [A,E][A,C] | [D,D]3 |] %26
w: ||
V:4
 x | x4 | x4 | x4 | x4 | x2 A, x | x4 | x4 | x3 || x | D,2 x2 | x4 | x4 | x4 | A,2 x2 | x4 | x4 | %17
 x4 | x4 | x4 | x4 | x4 | x4 | x4 | x4 | x3 |] %26

